assets/images/calendar.svg

<svg width="20" height="20" viewBox="0 0 20 20" fill="none" xmlns="http://www.w3.org/2000/svg">
<path d="M17.0587 1.59668H15.378V3.27736C15.378 3.61349 15.0978 3.83757 14.8177 3.83757C14.5377 3.83757 14.2576 3.61349 14.2576 3.27736V1.59668H5.29396V3.27736C5.29396 3.61349 5.01385 3.83757 4.73374 3.83757C4.45363 3.83757 4.17351 3.61349 4.17351 3.27736V1.59668H2.49285C1.6525 1.59668 1.03625 2.32498 1.03625 3.27736V5.29417H18.9635V3.27736C18.9635 2.32498 17.955 1.59668 17.0587 1.59668ZM1.03625 6.47063V16.7228C1.03625 17.7311 1.6525 18.4034 2.54886 18.4034H17.1147C18.0111 18.4034 19.0195 17.6751 19.0195 16.7228V6.47063H1.03625ZM6.02225 15.8824H4.67771C4.45363 15.8824 4.22954 15.7143 4.22954 15.4342V14.0336C4.22954 13.8095 4.39761 13.5854 4.67771 13.5854H6.07827C6.30237 13.5854 6.52645 13.7535 6.52645 14.0336V15.4342C6.47044 15.7143 6.30237 15.8824 6.02225 15.8824ZM6.02225 10.8404H4.67771C4.45363 10.8404 4.22954 10.6723 4.22954 10.3922V8.99164C4.22954 8.76756 4.39761 8.54346 4.67771 8.54346H6.07827C6.30237 8.54346 6.52645 8.71153 6.52645 8.99164V10.3922C6.47044 10.6723 6.30237 10.8404 6.02225 10.8404ZM10.504 15.8824H9.10348C8.8794 15.8824 8.6553 15.7143 8.6553 15.4342V14.0336C8.6553 13.8095 8.82337 13.5854 9.10348 13.5854H10.504C10.7281 13.5854 10.9522 13.7535 10.9522 14.0336V15.4342C10.9522 15.7143 10.7841 15.8824 10.504 15.8824ZM10.504 10.8404H9.10348C8.8794 10.8404 8.6553 10.6723 8.6553 10.3922V8.99164C8.6553 8.76756 8.82337 8.54346 9.10348 8.54346H10.504C10.7281 8.54346 10.9522 8.71153 10.9522 8.99164V10.3922C10.9522 10.6723 10.7841 10.8404 10.504 10.8404ZM14.9858 15.8824H13.5853C13.3612 15.8824 13.1371 15.7143 13.1371 15.4342V14.0336C13.1371 13.8095 13.3052 13.5854 13.5853 13.5854H14.9858C15.2099 13.5854 15.434 13.7535 15.434 14.0336V15.4342C15.434 15.7143 15.2659 15.8824 14.9858 15.8824ZM14.9858 10.8404H13.5853C13.3612 10.8404 13.1371 10.6723 13.1371 10.3922V8.99164C13.1371 8.76756 13.3052 8.54346 13.5853 8.54346H14.9858C15.2099 8.54346 15.434 8.71153 15.434 8.99164V10.3922C15.434 10.6723 15.2659 10.8404 14.9858 10.8404Z" fill="#FE0000"/>
</svg>

<svg xmlns="http://www.w3.org/2000/svg" width="20" height="20" fill="none"><path fill="#FE0000" d="M17.059 1.597h-1.681v1.68c0 .336-.28.56-.56.56a.56.56 0 0 1-.56-.56v-1.68H5.294v1.68a.561.561 0 0 1-1.12 0v-1.68H2.493c-.84 0-1.457.728-1.457 1.68v2.017h17.928V3.277c0-.952-1.009-1.68-1.905-1.68M1.036 6.47v10.252c0 1.008.617 1.68 1.513 1.68h14.566c.896 0 1.905-.728 1.905-1.68V6.47zm4.986 9.411H4.678a.44.44 0 0 1-.448-.448v-1.4c0-.225.168-.449.448-.449h1.4c.224 0 .448.168.448.449v1.4c-.056.28-.224.448-.504.448m0-5.042H4.678a.44.44 0 0 1-.448-.448v-1.4c0-.224.168-.449.448-.449h1.4c.224 0 .448.169.448.449v1.4c-.056.28-.224.448-.504.448m4.482 5.042h-1.4a.44.44 0 0 1-.449-.448v-1.4c0-.225.168-.449.448-.449h1.401c.224 0 .448.168.448.449v1.4c0 .28-.168.448-.448.448m0-5.042h-1.4a.44.44 0 0 1-.449-.448v-1.4c0-.224.168-.449.448-.449h1.401c.224 0 .448.169.448.449v1.4c0 .28-.168.448-.448.448m4.482 5.042h-1.4a.44.44 0 0 1-.449-.448v-1.4c0-.225.168-.449.448-.449h1.4c.225 0 .449.168.449.449v1.4c0 .28-.168.448-.448.448m0-5.042h-1.4a.44.44 0 0 1-.449-.448v-1.4c0-.224.168-.449.448-.449h1.4c.225 0 .449.169.449.449v1.4c0 .28-.168.448-.448.448"/></svg>
